X: 10193
T: A LAMENT FOR A FRIEND
Q: "Very slow with expression."
%R: air, lament
B: W. Hamilton "Universal Tune-Book" Vol. 1 Glasgow 1844 p.19 #3
S: http://imslp.org/wiki/Hamilton's_Universal_Tune-Book_(Various)
Z: 2016 John Chambers <jc:trillian.mit.edu>
N: The book does have slurs from notes to rests.
M: C
L: 1/8
K: Em
% - - - - - - - - - - - - - - - - - - - - - - - - -
B |\
e>e^de fg{g}f2 | b>agf egf>B |\
e>e^de f<g{g}Tf2 | {a}ge{g}fe/^d/ Te2eB |\
e>e^de fgTf2 | {c'}bagf egfB |
e>e^de {g}fg{g}Tf2 | (3("_>"bgz) (3("_>"afz) (3("_>"gez) (3("_>"f^dz) |\
e3e f2ga |]\
bbb>g agTf2 | e>efg a>gfd |\
e>e^de fgTf2 |
g>ef^d Te2eg |\
{a}bbb>g agTf2 | e>efg a>gfd |\
e>e^de f2gf | (3("_>"bgz) (3("_>"afz) (3("_>"gez) (3("_>"f^dz) |\
e6 z |]
% - - - - - - - - - - - - - - - - - - - - - - - - -

%%sep 1 1 500
%%sep 1 1 500

